resources/icons/cisco/15200.svg

<?xml version="1.0" encoding="UTF-8"?>
<svg xmlns="http://www.w3.org/2000/svg" xmlns:xlink="http://www.w3.org/1999/xlink" width="322pt" height="200pt" viewBox="0 0 322 200" version="1.1">
<g id="surface1">
<path style=" stroke:none;fill-rule:nonzero;fill:rgb(3.137255%,48.235294%,73.333333%);fill-opacity:1;" d="M 25.210938 39.503906 L 253.054688 39.503906 L 278.96875 63.34375 L 278.96875 170.984375 L 253.054688 193.039062 L 24.042969 193.039062 L 1.386719 170.988281 L 1.386719 63.34375 L 25.214844 39.511719 "/>
<path style="fill:none;stroke-width:0.5;stroke-linecap:butt;stroke-linejoin:miter;stroke:rgb(100%,100%,100%);stroke-opacity:1;stroke-miterlimit:4;" d="M 4.541101 7.11 L 45.581279 7.11 L 50.24903 11.403281 L 50.24903 30.777891 L 45.581279 34.747734 L 4.330721 34.747734 L 0.249782 30.777891 L 0.249782 11.403281 L 4.539693 7.110703 Z M 4.541101 7.11 " transform="matrix(5.551724,0,0,5.555556,0,0)"/>
<path style=" stroke:none;fill-rule:nonzero;fill:rgb(3.137255%,48.235294%,73.333333%);fill-opacity:1;" d="M 25.210938 39.148438 L 253.054688 39.148438 L 292.386719 4.109375 L 64.515625 4.109375 L 25.210938 39.15625 "/>
<path style="fill:none;stroke-width:0.5;stroke-linecap:butt;stroke-linejoin:miter;stroke:rgb(100%,100%,100%);stroke-opacity:1;stroke-miterlimit:4;" d="M 4.541101 7.048125 L 45.581279 7.048125 L 52.665931 0.739687 L 11.620827 0.739687 L 4.541101 7.050234 Z M 4.541101 7.048125 " transform="matrix(5.551724,0,0,5.555556,0,0)"/>
<path style=" stroke:none;fill-rule:nonzero;fill:rgb(3.137255%,48.235294%,73.333333%);fill-opacity:1;" d="M 251.886719 39.503906 L 277.800781 63.34375 L 317.132812 28.304688 L 291.222656 4.429688 L 251.886719 39.503906 "/>
<path style="fill:none;stroke-width:0.5;stroke-linecap:butt;stroke-linejoin:miter;stroke:rgb(100%,100%,100%);stroke-opacity:1;stroke-miterlimit:4;" d="M 45.3709 7.11 L 50.03865 11.403281 L 57.123302 5.094141 L 52.456255 0.798047 L 45.3709 7.110703 Z M 45.3709 7.11 " transform="matrix(5.551724,0,0,5.555556,0,0)"/>
<path style=" stroke:none;fill-rule:nonzero;fill:rgb(100%,100%,100%);fill-opacity:1;" d="M 10.953125 129.265625 L 270.507812 129.265625 L 270.507812 102.601562 L 10.953125 102.601562 Z M 10.953125 129.265625 "/>
<path style="fill:none;stroke-width:1.5;stroke-linecap:round;stroke-linejoin:miter;stroke:rgb(100%,100%,100%);stroke-opacity:1;stroke-miterlimit:1;" d="M 29.961132 20.846953 C 23.276131 20.846953 18.080673 15.908906 18.080673 9.556875 M 29.961132 20.110078 C 23.276131 20.110078 18.080673 15.910312 18.080673 9.556875 M 3.223239 20.110078 C 9.90824 20.110078 15.107216 15.910312 15.107216 9.556875 M 47.787801 20.110078 C 41.104207 20.110078 35.903824 15.910312 35.903824 9.556875 M 21.049908 20.110078 C 27.734909 20.110078 32.935292 15.910312 32.935292 9.556875 M 29.961132 21.656953 C 23.276131 21.656953 18.080673 25.787812 18.080673 32.136328 M 3.223239 21.656953 C 9.90824 21.656953 15.107216 25.787812 15.107216 32.136328 M 47.787801 21.656953 C 41.104207 21.656953 35.903824 25.787812 35.903824 32.136328 M 21.049908 21.656953 C 27.734909 21.656953 32.935292 25.787812 32.935292 32.136328 " transform="matrix(5.551724,0,0,5.555556,0,0)"/>
<path style=" stroke:none;fill-rule:nonzero;fill:rgb(3.137255%,48.235294%,73.333333%);fill-opacity:1;" d="M 277.832031 63.34375 L 277.832031 170.984375 L 317.136719 135.945312 L 317.136719 28.304688 L 277.832031 63.34375 "/>
<path style="fill:none;stroke-width:0.5;stroke-linecap:butt;stroke-linejoin:miter;stroke:rgb(100%,100%,100%);stroke-opacity:1;stroke-miterlimit:4;" d="M 50.044279 11.403281 L 50.044279 30.777891 L 57.124005 24.46875 L 57.124005 5.094141 L 50.044279 11.403984 Z M 50.044279 11.403281 " transform="matrix(5.551724,0,0,5.555556,0,0)"/>
</g>
</svg>

<svg xmlns="http://www.w3.org/2000/svg" viewBox="0 0 57.5 36.25" height="36.25" width="57.5"><path d="M4.541 7.111h41.04l4.668 4.291v19.375l-4.668 3.97H4.331L.25 30.778V11.402l4.292-4.29" fill="#087bbb"/><path d="M4.541 7.11h41.04l4.668 4.293v19.375l-4.668 3.97H4.331L.25 30.778V11.403L4.54 7.111z" fill="none" stroke="#fff" stroke-width=".5"/><path d="M4.541 7.047h41.04L52.666.74H11.621l-7.08 6.308" fill="#087bbb"/><path d="M4.541 7.048h41.04L52.666.74H11.621l-7.08 6.31z" fill="none" stroke="#fff" stroke-width=".5"/><path d="M45.371 7.111l4.668 4.291 7.084-6.307L52.456.797l-7.085 6.314" fill="#087bbb"/><path d="M45.371 7.11l4.668 4.293 7.084-6.309L52.456.798l-7.085 6.313z" fill="none" stroke="#fff" stroke-width=".5"/><path d="M1.973 23.268h46.752v-4.8H1.973v4.8z" fill="#fff"/><path d="M29.961 20.847c-6.685 0-11.88-4.938-11.88-11.29M29.961 20.11c-6.685 0-11.88-4.2-11.88-10.553M3.223 20.11c6.685 0 11.884-4.2 11.884-10.553M47.788 20.11c-6.684 0-11.884-4.2-11.884-10.553M21.05 20.11c6.685 0 11.885-4.2 11.885-10.553M29.961 21.657c-6.685 0-11.88 4.131-11.88 10.479M3.223 21.657c6.685 0 11.884 4.131 11.884 10.479M47.788 21.657c-6.684 0-11.884 4.131-11.884 10.479M21.05 21.657c6.685 0 11.885 4.131 11.885 10.479" fill="none" stroke="#fff" stroke-width="1.5" stroke-linecap="round" stroke-miterlimit="1"/><path d="M50.044 11.402v19.375l7.08-6.307V5.095l-7.08 6.307" fill="#087bbb"/><path d="M50.044 11.403v19.375l7.08-6.309V5.094l-7.08 6.31z" fill="none" stroke="#fff" stroke-width=".5"/></svg>
